X:1
T:Paddy O'Rafferty
C:Trad.
M:6/8
Q:200
V:1
V:2
K:D
V:1
dff cee|def gfe|faf gfe|[1 dfe dBA:|[2 dfe dcB|]
V:2
dff cee|def gfe|faf gfe|dfe dBA|
dff cee|def gfe|faf gfe|dfe dcB|]
V:1
fAA eAA| def gfe|faf gfe|dfe dBA:|
V:2
fAA eAA| def gfe|faf gfe|dfe dBA|
fAA eAA| def gfe|faf gfe|dfe dBA|
